X:1
T: The Belted Plaid
C:Alexander Walker
R:Reel
Q:232
K:Am
M:4/4
L:1/8
|:E|Ac Bc AE EC|Dc E^G A3B|ce cA Bd BG|DF E^G, A,2A,E|
Ac Bc AE EC|Dc E^G A3B|ce cA Bd BG|DF E^G, A,2A,E|
A1/2A1/2A cA aA ce|G1/2G1/2G BG gG Bc|A1/2A1/2A cA aA ce|gdB^G A3B|
Aa ce aA ce|Gg Bd gG BG|cd e^f ga ge|dB GB A3:|
